.storybook/public/story-assets/icon_4_light.svg

<svg width="32" height="32" viewBox="0 0 32 32" fill="none" xmlns="http://www.w3.org/2000/svg">
<path fill-rule="evenodd" clip-rule="evenodd" d="M27 19.7243V12.2757C27 11.2549 26.4809 10.3041 25.6223 9.75213L17.6223 4.60928C16.6341 3.97399 15.3659 3.97399 14.3777 4.60928L6.37773 9.75213C5.51906 10.3041 5 11.2549 5 12.2757V19.7243C5 20.745 5.51906 21.6958 6.37773 22.2478L14.3777 27.3906C15.3659 28.0259 16.6341 28.0259 17.6223 27.3906L25.6223 22.2478C26.4809 21.6958 27 20.745 27 19.7243ZM4.75545 7.2286C3.03812 8.3326 2 10.2341 2 12.2757V19.7243C2 21.7658 3.03812 23.6673 4.75546 24.7713L12.7555 29.9142C14.7319 31.1848 17.2681 31.1848 19.2445 29.9142L27.2445 24.7713C28.9619 23.6673 30 21.7658 30 19.7243V12.2757C30 10.2341 28.9619 8.3326 27.2445 7.2286L19.2445 2.08574C17.2681 0.815169 14.7319 0.81517 12.7555 2.08574L4.75545 7.2286Z" fill="#262626"/>
</svg>

<svg xmlns="http://www.w3.org/2000/svg" width="32" height="32" fill="none"><path fill="#262626" fill-rule="evenodd" d="M27 19.724v-7.448a3 3 0 0 0-1.378-2.524l-8-5.143a3 3 0 0 0-3.244 0l-8 5.143A3 3 0 0 0 5 12.276v7.448a3 3 0 0 0 1.378 2.524l8 5.143a3 3 0 0 0 3.244 0l8-5.143A3 3 0 0 0 27 19.724M4.755 7.23A6 6 0 0 0 2 12.276v7.448a6 6 0 0 0 2.755 5.047l8 5.143a6 6 0 0 0 6.49 0l8-5.143A6 6 0 0 0 30 19.724v-7.448a6 6 0 0 0-2.756-5.047l-8-5.143a6 6 0 0 0-6.488 0z" clip-rule="evenodd"/></svg>
